!!!COM: Palestrina, Giovanni Perluigi da
!!!OPR: Missa In illo tempore
!!!OMD: Gloria
!!!OTL: Qui tollis
**kern	**kern	**kern	**kern
*Ibass	*Itenor	*Icalto	*Icant
!Bassus	!Tenor	!Altus	!Cantus
*clefF4	*clefGv2	*clefG2	*clefG2
*k[]	*k[]	*k[]	*k[]
*A:aeo	*A:aeo	*A:aeo	*A:aeo
*M4/2	*M4/2	*M4/2	*M4/2
=69	=69	=69	=69
0r	1d	0r	0r
.	1d	.	.
=70	=70	=70	=70
1A	2c	1r	0r
.	2A	.	.
1A	2c	1e	.
.	2c	.	.
=71	=71	=71	=71
2G	0B	1e	0r
2E	.	.	.
2G	.	2d	.
2G	.	2B	.
=72	=72	=72	=72
0F	0A	2d	1a
.	.	2d	.
.	.	[1c	1a
=73	=73	=73	=73
0E	2r	2c]	2g
.	2G	4B	2e
.	.	4A	.
.	2.B	1G	2g
.	.	.	2g
.	4c	.	.
=74	=74	=74	=74
1D	1d	1A	0f
2.F	1A	2r	.
.	.	2A	.
4G	.	.	.
=75	=75	=75	=75
1A	2A	2.c	0e
.	1c	.	.
.	.	4d	.
2.E	.	2e	.
.	4B	[2g	.
4F	4A	.	.
=76	=76	=76	=76
1G	1B	2g]	1d
.	.	1d	.
1D	2A	.	2.f
.	2d	[2f	.
.	.	.	4g
=77	=77	=77	=77
2.F	2c	2f]	1a
.	2.A	4e	.
4G	.	4d	.
1A	.	1c	2e
.	4B	.	.
.	4c	.	2f
.	4A	.	.
=78	=78	=78	=78
0G	2B	2d	0g
.	1c	2e	.
.	.	1d	.
.	2B	.	.
=79	=79	=79	=79
2.C	2c	2r	[0g
.	2c	2e	.
4D	.	.	.
2E	1c	1e	.
2C	.	.	.
=80	=80	=80	=80
0G	2B	2d	1g]
.	2G	2B	.
.	2B	2d	1r
.	2B	2d	.
=81	=81	=81	=81
2r	4A	2c	2r
.	4B	.	.
2A	4c	4A	2cc
.	4d	4B	.
1A	2e	4c	1cc
.	.	4d	.
.	2c	4e	.
.	.	4f	.
=82	=82	=82	=82
2G	2d	4g	2b
.	.	4d	.
2E	2.e	2.g	2g
2G	.	.	2b
.	4d	4f	.
2G	2B	[2e	2b
=83	=83	=83	=83
1F	2c	2e]	1.a
.	2A	2d	.
1E	1B	1e	.
.	.	.	2g
=84	=84	=84	=84
1.C	2r	2r	2r
.	1c	1g	1e
2C	2c	2g	2e
=85	=85	=85	=85
[0C	1c	2g	[0e
.	.	1c	.
.	2r	.	.
.	[2G	2c	.
=86	=86	=86	=86
1C]	2G]	2c	1e]
.	2G	2c	.
1r	2G	2d	1r
.	2G	2e	.
=87	=87	=87	=87
0r	2A	1f	1r
.	2B	.	.
.	[1c	[1e	[1g
=88	=88	=88	=88
0r	2c]	2e]	2g]
.	4B	4d	2g
.	4A	4c	.
.	2B	2d	2g
.	[2c	[2e	2g
=89	=89	=89	=89
0r	2c]	4e]	2a
.	.	4f	.
.	2B	1g	2b
.	1A	.	2.cc
.	.	2f#	.
.	.	.	8b
.	.	.	8a
=90	=90	=90	=90
2r	2G	1g	4b
.	.	.	4a
1C	2.c	.	4g
.	.	.	4f
.	.	2r	4e
.	4d	.	4d
2C	[2e	[2g	4c
.	.	.	4d
=91	=91	=91	=91
2C	4e]	4g]	4e
.	4d	4f	4f
2C	4c	2e	4g
.	4B	.	4e
2D	2A	2d	2f
2E	2G	[2c	[2e
=92	=92	=92	=92
1F	1A	2c]	2e]
.	.	4B	2d
.	.	4A	.
1E	2G	2B	1e
.	2c	2e	.
=93	=93	=93	=93
0r	1c	1e	2r
.	.	.	2g
.	2B	[1d	1g
.	2G	.	.
=94	=94	=94	=94
0r	2.A	2d]	2f
.	.	2c	2e
.	4A	.	.
.	2D	[1f	[1a
.	4D	.	.
.	4E	.	.
=95	=95	=95	=95
1r	4F	2f]	2a]
.	4G	.	.
.	4A	2e	2a
.	4B	.	.
2r	2c	2.e	2.g
2E	2B	.	.
.	.	4d	4f
=96	=96	=96	=96
1E	1G	2c	4e
.	.	.	4f
.	.	2.B	4g
.	.	.	4e
2D	2r	.	2f
.	.	4A	.
2C	[2A	[2c	[2e
=97	=97	=97	=97
2.F	2A]	2c]	2e]
.	2A	4B	2d
4F	.	4A	.
1E	2B	1G	1e
.	2c	.	.
=98	=98	=98	=98
1D	1d	2A	1f
.	.	1A	.
2AA	2.c	.	2r
[2C	.	2G	[2e
.	8B	.	.
.	8A	.	.
=99	=99	=99	=99
2C]	1G	2c	2e]
2C	.	2c	2e
2D	1r	1B	2f#
2E	.	.	2g#
=100	=100	=100	=100
0F	2r	2A	0a
.	1A	1c	.
.	2A	2d	.
=101	=101	=101	=101
1E	2B	2e	2g
.	2c	2e	2g
1r	1d	1f	2b-
.	.	.	[2a
=102	=102	=102	=102
2r	2.c	1.e	4a]
.	.	.	4g
1C	.	.	1g
.	4B	.	.
.	1A	.	.
2D	.	4d	2f#
.	.	4c	.
=103	=103	=103	=103
2E	1G	2B	2g
2C	.	1c	2e
2.F	1r	.	2.a
.	.	2d	.
8E	.	.	8g
8D	.	.	8f
=104	=104	=104	=104
2C	2r	2e	1g
2E	2G	2c	.
1D	2A	[1f	1r
.	2B	.	.
=105	=105	=105	=105
0C	1c	2f]	2r
.	.	4e	1g
.	.	4d	.
.	2.c	2e	.
.	.	2c	2a
.	8B	.	.
.	8A	.	.
=106	=106	=106	=106
0r	2G	1d	2b
.	2B	.	2g
.	2A	1e	2cc
.	4G	.	4b
.	4F	.	4a
=107	=107	=107	=107
0r	1E	2r	2g
.	.	2c	2e
.	1F	2c	1a
.	.	2d	.
=108	=108	=108	=108
2r	2.c	2.e	1g
2C	.	.	.
.	4B	4d	.
2C	1A	2e	1r
2D	.	[2f	.
=109	=109	=109	=109
2.E	2r	4f]	1r
.	.	4e	.
.	2G	1e	.
8D	.	.	.
8E	.	.	.
2F	2A	.	2r
2G	2B	2d	[2g
=110	=110	=110	=110
1C	2.c	2.e	2g]
.	.	.	2a
.	8B	4f	.
.	8A	.	.
1r	2G	4g	2b
.	.	4f	.
.	[2A	4e	[2cc
.	.	4d	.
=111	=111	=111	=111
0r	4A]	2c	4cc]
.	4G	.	4b
.	2E	1e	2g
.	2F	.	2.a
.	2F	2d	.
.	.	.	4b
=112	=112	=112	=112
2r	1E	1e	2cc
2G	.	.	2b
1A	1r	2r	2.e
.	.	2c	.
.	.	.	4f
=113	=113	=113	=113
2B	0r	1d	1g
2G	.	.	.
2.c	.	[1e	2r
.	.	.	2g
4B	.	.	.
=114	=114	=114	=114
2A	1c	2e]	1a
2A	.	2f	.
1G	1d	2g	1b
.	.	2g	.
=115	=115	=115	=115
1r	2e	2.c	2g
.	2A	.	4cc
.	.	4d	4b
2r	2.c	[1e	4a
.	.	.	4g
[2C	.	.	[2g
.	4B	.	.
=116	=116	=116	=116
2C]	2A	2e]	2g]
2D	2A	4d	2f
.	.	4c	.
2E	2G	2B	2e
2C	2c	2e	2g
=117	=117	=117	=117
2F	2A	2c	2a
4E	2.c	2.e	4g
4D	.	.	4f
2C	.	.	4e
.	4B	4d	4f
2E	2G	4B	[2g
.	.	4c	.
=118	=118	=118	=118
1D	1A	1d	2g]
.	.	.	2f#
1G	1B	1d	1g
=119	=119	=119	=119
1r	1r	1r	1r
*-	*-	*-	*-
!!!CDT: 1525/^1526/-1594/2/2
!!!OCY: Italia
!!!AGN: Mass (Parody)
!!!AST: renaissance, vocal
!!!ASW: Motet 1518 (Moulu)
!!!PWK: Masses, Book 10
!!!RNB: Cadence finals: E,G,C
!!!YOR: Le Opere Complete, v. 27, p. 1
!!!YOO: Rome, Italy: Fratelli Scalera
!!!END: 1992//
!!!EED: John Miller
!!!YEC: Copyright 2000, John Miller
!!!YEN: United States of America
!!!YEM: Rights to all derivative electronic formats reserved.
!!!YEM: Refer to licensing agreement for further details.
!!!YEM: This file must be accompanied by the licensing agreement.
!!!YEM: A copy of the licensing agreement may be found at http://www.music-cog.ohio-state.edu/HumdrumDatabases/Palestrina/license.txt
!!!EMD: converted to Humdrum by Bret Aarden
